packages/design-assets/icons/24px/Plus Circle.svg

<?xml version="1.0" encoding="UTF-8"?>
<svg width="24px" height="24px" viewBox="0 0 24 24" version="1.1" xmlns="http://www.w3.org/2000/svg" xmlns:xlink="http://www.w3.org/1999/xlink">
    <!-- Generator: Sketch 54.1 (76490) - https://sketchapp.com -->
    <title>Icons/24px/Plus Circle</title>
    <desc>Created with Sketch.</desc>
    <defs>
        <path d="M13,11 L18,11 L18,13 L13,13 L13,18 L11,18 L11,13 L6,13 L6,11 L11,11 L11,6 L13,6 L13,11 Z M12,24 C5.372583,24 0,18.627417 0,12 C0,5.372583 5.372583,0 12,0 C18.627417,0 24,5.372583 24,12 C24,18.627417 18.627417,24 12,24 Z M12,22 C17.5228475,22 22,17.5228475 22,12 C22,6.4771525 17.5228475,2 12,2 C6.4771525,2 2,6.4771525 2,12 C2,17.5228475 6.4771525,22 12,22 Z" id="path-1"></path>
    </defs>
    <g id="Icons/24px/Plus-Circle" stroke="none" stroke-width="1" fill="none" fill-rule="evenodd">
        <mask id="mask-2" fill="white">
            <use xlink:href="#path-1"></use>
        </mask>
        <use id="i-24-circle-add" fill="#818F99" xlink:href="#path-1"></use>
    </g>
</svg>

<svg width="24" height="24" xmlns="http://www.w3.org/2000/svg" xmlns:xlink="http://www.w3.org/1999/xlink"><defs><path d="M13 11h5v2h-5v5h-2v-5H6v-2h5V6h2v5zm-1 13C5.373 24 0 18.627 0 12S5.373 0 12 0s12 5.373 12 12-5.373 12-12 12zm0-2c5.523 0 10-4.477 10-10S17.523 2 12 2 2 6.477 2 12s4.477 10 10 10z" id="a"/></defs><use fill="#818F99" xlink:href="#a" fill-rule="evenodd"/></svg>
